view-gallery.svg

<svg fill="currentColor" viewBox="0 0 24 24"><path d="M21 3H2v13h19zM2 17h4v4H2zm5 0h4v4H7zm5 0h4v4h-4zm5 0h4v4h-4z"/></svg>

<svg  viewBox="0 0 24 24" fill="currentColor"><path  d="M21 3H2V16H21V3M2 17H6V21H2V17M7 17H11V21H7V17M12 17H16V21H12V17M17 17H21V21H17V17Z"/></svg>
